Obsidian/actions/24s/distribute-unclump.svg

<svg height="24" viewBox="0 0 24 24" width="24" xmlns="http://www.w3.org/2000/svg"><path d="m0 1.0097656v14.0000004h4v-14.0000004zm10 0v4h5v-4zm-5 1v1h4v-1zm7 4v4.0000004h1v-4.0000004zm-2 5.0000004v4h5v-4zm-5 2v1h4v-1z" fill="#bebebe" transform="translate(4 4)"/></svg>

<svg xmlns="http://www.w3.org/2000/svg" width="24" height="24" viewBox="0 0 24 24">
 <defs>
  <style id="current-color-scheme" type="text/css">
   .ColorScheme-Text { color:#bebebe; } .ColorScheme-Highlight { color:#4285f4; }
  </style>
 </defs>
 <path style="fill:currentColor" class="ColorScheme-Text" d="M 0 1.0097656 L 0 15.009766 L 4 15.009766 L 4 1.0097656 L 0 1.0097656 z M 10 1.0097656 L 10 5.0097656 L 15 5.0097656 L 15 1.0097656 L 10 1.0097656 z M 5 2.0097656 L 5 3.0097656 L 9 3.0097656 L 9 2.0097656 L 5 2.0097656 z M 12 6.0097656 L 12 10.009766 L 13 10.009766 L 13 6.0097656 L 12 6.0097656 z M 10 11.009766 L 10 15.009766 L 15 15.009766 L 15 11.009766 L 10 11.009766 z M 5 13.009766 L 5 14.009766 L 9 14.009766 L 9 13.009766 L 5 13.009766 z" transform="translate(4 4)"/>
</svg>
